X: 084
T: Good news from Leghorn
B: 204 Favourite Country Dances
N: Published by Straight & Skillern, London ca.1775
F: http://imslp.org/wiki/204_Favourite_Country_Dances_(Various) p.42 #84
Z: 2014 John Chambers <jc:trillian.mit.edu>
M: 2/4
L: 1/8
K: G
% - - - - - - - - - - - - - - - - - - - - - - - - -
|:\
gfgd | BdBG | EcAF | GDB,G, |\
gfgd | BdBG | edcB | {B2}A4 :|
|:\
AcTc2 | BdTd2 | EcAG | {G}F2ED |\
GBdg | ecBA | BAGF | G4 :|
% - - - - - - - - - - - - - - - - - - - - - - - - -
%%begintext align
%% The 1st Cu. cast off hands round 4 with
%% the 3d Cu. .| cast up hands round with the
%% 2d Cu. :| lead down 1 Cu. up again & cast
%% off .|. Right & Left at top :|:
%%endtext

%%sep 1 1 500
%%sep 1 1 500
